img/svg/radar-graph.svg

<svg width="148" height="72" viewBox="0 0 148 72" fill="none" xmlns="http://www.w3.org/2000/svg">
<path d="M0 72V41.9178C0 41.9178 5.42667 23.6712 12.8267 23.6712C20.2267 23.6712 18.4507 36 29.1067 36C40.4533 36 39.4667 0 50.32 0C61.1733 0 57.2267 26.137 69.56 26.137C79.92 26.137 77.4533 7.39726 84.8533 7.39726C96.2 7.39726 92.056 41.9178 105.08 41.9178C114.947 41.9178 120.373 9.36986 130.733 9.36986C141.093 9.36986 148 41.9178 148 41.9178V72H0Z" fill="url(#paint0_radial)"/>
<path d="M1.184 41.4247C1.38133 40.9315 1.57867 40.2411 1.87467 39.3534C2.46667 37.6767 3.35467 35.4082 4.53867 33.1397C5.624 30.8712 7.00533 28.7014 8.48533 27.1233C9.96533 25.4466 11.4453 24.5589 12.9253 24.5589C14.4053 24.5589 15.4907 25.1507 16.3787 26.137C17.168 27.0247 17.76 28.1096 18.5493 29.2932C18.7467 29.589 18.8453 29.8849 19.0427 30.1808C19.9307 31.7589 21.016 33.4356 22.5947 34.7178C24.272 36 26.344 36.8877 29.2053 36.8877C32.6587 36.8877 34.928 34.126 36.704 30.674C38.3813 27.2219 39.7627 22.5863 40.9467 18.1479L41.0453 17.9507C42.328 13.5123 43.512 9.1726 44.992 6.01644C46.472 2.66301 48.248 0.986301 50.32 0.986301C52.4907 0.986301 54.0693 2.26849 55.352 4.53699C56.536 6.70685 57.424 9.66575 58.312 12.7233C58.4107 12.9205 58.4107 13.1178 58.5093 13.3151C59.496 16.5699 60.4827 19.9233 62.16 22.5863C63.8373 25.2493 66.1067 27.1233 69.6587 27.1233C72.6187 27.1233 74.6907 25.7425 76.1707 23.7699C77.6507 21.8959 78.5387 19.4301 79.328 17.063C79.4267 16.6685 79.624 16.274 79.7227 15.8795C80.4133 13.9068 81.0053 12.2301 81.696 10.8493C82.584 9.1726 83.5707 8.38356 84.8533 8.38356C87.024 8.38356 88.7013 10.0603 90.0827 13.2164C91.3653 16.1753 92.2533 20.0219 93.1413 24.0658C93.24 24.3616 93.24 24.6575 93.3387 24.9534C94.3253 29.2931 95.4107 33.6329 97.088 37.0849C98.7653 40.4384 101.232 43.0027 105.08 43.0027C106.56 43.0027 107.941 42.411 109.224 41.4247C110.408 40.4384 111.592 39.0575 112.677 37.4795C114.749 34.4219 116.624 30.4767 118.499 26.5315L118.696 26.2356C120.669 22.1918 122.544 18.1479 124.616 15.189C126.688 12.1315 128.76 10.5534 130.832 10.5534C132.904 10.5534 134.976 12.2301 137.048 15.189C139.12 18.1479 140.896 22.0932 142.376 26.137C143.856 30.1808 145.04 34.2247 145.829 37.2822C146.224 38.7616 146.52 40.0438 146.717 40.9315C146.816 41.326 146.915 41.7205 146.915 41.9178V42.0164C146.915 42.0164 146.915 42.0164 146.915 42.1151H147.901C147.901 42.1151 140.995 9.56712 130.635 9.56712C125.405 9.56712 121.459 17.9507 117.512 26.137C113.664 34.126 109.915 42.1151 104.981 42.1151C98.272 42.1151 96.1013 32.8438 94.0293 23.9671C92.056 15.6822 90.28 7.59452 84.7547 7.59452C81.4 7.59452 80.0187 11.5397 78.6373 15.7808C76.96 20.811 75.0853 26.3342 69.4613 26.3342C63.1467 26.3342 61.0747 19.3315 59.1013 12.6247C57.3253 6.11507 55.5493 0 50.32 0C44.992 0 42.5253 8.77808 39.96 17.6548C37.3947 26.7288 34.8293 36 29.1067 36C23.2853 36 21.2133 32.3507 19.24 28.9973C17.6613 26.2356 16.1813 23.6712 12.8267 23.6712C5.42667 23.6712 0 41.9178 0 41.9178H0.986667C1.08533 41.8192 1.08533 41.6219 1.184 41.4247Z" fill="#4A4D86"/>
<defs>
<radialGradient id="paint0_radial" cx="0" cy="0" r="1" gradientUnits="userSpaceOnUse" gradientTransform="translate(74.0016 13.8101) rotate(90) scale(52.274 107.453)">
<stop stop-color="#4A4D86" stop-opacity="0.2"/>
<stop offset="1" stop-color="#4A4D86" stop-opacity="0"/>
</radialGradient>
</defs>
</svg>

<svg width="148" height="72" fill="none" xmlns="http://www.w3.org/2000/svg"><path d="M0 72V41.918S5.427 23.67 12.827 23.67 18.45 36 29.107 36C40.453 36 39.467 0 50.32 0c10.853 0 6.907 26.137 19.24 26.137 10.36 0 7.893-18.74 15.293-18.74 11.347 0 7.203 34.52 20.227 34.52 9.867 0 15.293-32.547 25.653-32.547S148 41.918 148 41.918V72H0z" fill="url(#paint0_radial)"/><path d="M1.184 41.425c.197-.493.395-1.184.69-2.072.593-1.676 1.48-3.945 2.665-6.213 1.085-2.269 2.466-4.439 3.946-6.017 1.48-1.676 2.96-2.564 4.44-2.564 1.48 0 2.566.592 3.454 1.578.789.888 1.381 1.973 2.17 3.156.198.296.296.592.494.888.888 1.578 1.973 3.255 3.552 4.537 1.677 1.282 3.749 2.17 6.61 2.17 3.454 0 5.723-2.762 7.499-6.214 1.677-3.452 3.059-8.088 4.243-12.526l.098-.197c1.283-4.439 2.467-8.778 3.947-11.935 1.48-3.353 3.256-5.03 5.328-5.03 2.17 0 3.75 1.282 5.032 3.551 1.184 2.17 2.072 5.129 2.96 8.186.099.197.099.395.197.592.987 3.255 1.974 6.608 3.651 9.271 1.677 2.663 3.947 4.537 7.499 4.537 2.96 0 5.032-1.38 6.512-3.353 1.48-1.874 2.368-4.34 3.157-6.707.099-.394.296-.789.395-1.183.69-1.973 1.282-3.65 1.973-5.03.888-1.677 1.875-2.466 3.157-2.466 2.171 0 3.848 1.676 5.23 4.832 1.282 2.96 2.17 6.806 3.058 10.85.099.296.099.591.198.887.986 4.34 2.072 8.68 3.749 12.132 1.677 3.353 4.144 5.918 7.992 5.918 1.48 0 2.861-.592 4.144-1.578 1.184-.987 2.368-2.367 3.453-3.945 2.072-3.058 3.947-7.003 5.822-10.948l.197-.296c1.973-4.044 3.848-8.088 5.92-11.047 2.072-3.057 4.144-4.636 6.216-4.636s4.144 1.677 6.216 4.636 3.848 6.904 5.328 10.948a122.66 122.66 0 013.453 11.145c.395 1.48.691 2.762.888 3.65.099.394.198.788.198.986v.198h.986s-6.906-32.549-17.266-32.549c-5.23 0-9.176 8.384-13.123 16.57-3.848 7.989-7.597 15.978-12.531 15.978-6.709 0-8.88-9.271-10.952-18.148-1.973-8.285-3.749-16.372-9.274-16.372-3.355 0-4.736 3.945-6.118 8.186-1.677 5.03-3.552 10.553-9.176 10.553-6.314 0-8.386-7.003-10.36-13.71C57.325 6.116 55.55 0 50.32 0c-5.328 0-7.795 8.778-10.36 17.655C37.395 26.729 34.83 36 29.107 36c-5.822 0-7.894-3.65-9.867-7.003-1.579-2.761-3.059-5.326-6.413-5.326C5.427 23.671 0 41.918 0 41.918h.987c.098-.099.098-.296.197-.493z" fill="#4A4D86"/><defs><radialGradient id="paint0_radial" cx="0" cy="0" r="1" gradientUnits="userSpaceOnUse" gradientTransform="matrix(0 52.274 -107.453 0 74.002 13.81)"><stop stop-color="#4A4D86" stop-opacity=".2"/><stop offset="1" stop-color="#4A4D86" stop-opacity="0"/></radialGradient></defs></svg>
